X: 39297
T: Take Me Tender
R: reel
M: 4/4
K: Gmajor
ADDc ABcA|BGAG EFGE|ADDc ABcA|BGAG EFDB|
ADDc ABcA|BGAG EFGE|ADDc ABcA|BGAG EFDd|
K: Dmaj
e~g3 edcd|efge d2cd|e~g3 dfed|cAGE FDDd|
e~g3 edcd|efge defg|afge dfed|cAGE FDDB|

